src/components/sprite.svg

<?xml version="1.0" encoding="utf-8"?><svg xmlns="http://www.w3.org/2000/svg" xmlns:xlink="http://www.w3.org/1999/xlink"><symbol viewBox="0 0 20 20" id="arrow-up-right"><path stroke="#000" stroke-linecap="round" stroke-linejoin="round" stroke-width="2" d="M5.83325 14.1667L14.1666 5.83333" class="icon__color-element"/><path stroke="#000" stroke-linecap="round" stroke-linejoin="round" stroke-width="2" d="M5.83325 5.83333H14.1666V14.1667" class="icon__color-element"/></symbol><symbol viewBox="0 0 20 20" id="calendar"><path stroke="#000" stroke-linecap="round" stroke-linejoin="round" stroke-width="2" d="M15.8333 3.33334H4.16667C3.24619 3.33334 2.5 4.07954 2.5 5.00001V16.6667C2.5 17.5872 3.24619 18.3333 4.16667 18.3333H15.8333C16.7538 18.3333 17.5 17.5872 17.5 16.6667V5.00001C17.5 4.07954 16.7538 3.33334 15.8333 3.33334Z" class="icon__color-element"/><path stroke="#000" stroke-linecap="round" stroke-linejoin="round" stroke-width="2" d="M13.3333 1.66666V4.99999" class="icon__color-element"/><path stroke="#000" stroke-linecap="round" stroke-linejoin="round" stroke-width="2" d="M6.66675 1.66666V4.99999" class="icon__color-element"/><path stroke="#000" stroke-linecap="round" stroke-linejoin="round" stroke-width="2" d="M2.5 8.33334H17.5" class="icon__color-element"/></symbol><symbol viewBox="0 0 20 20" id="chevron-down"><path stroke="#000" stroke-linecap="round" stroke-linejoin="round" stroke-width="2" d="M5 7.5L10 12.5L15 7.5" class="icon__color-element"/></symbol><symbol viewBox="0 0 16 16" id="clock"><g clip-path="url(#dclip0_174_2552)"><path stroke="#000" stroke-linecap="round" stroke-linejoin="round" d="M7.99992 14.6668C11.6818 14.6668 14.6666 11.6821 14.6666 8.00016C14.6666 4.31826 11.6818 1.3335 7.99992 1.3335C4.31802 1.3335 1.33325 4.31826 1.33325 8.00016C1.33325 11.6821 4.31802 14.6668 7.99992 14.6668Z" class="icon__color-element"/><path stroke="#000" stroke-linecap="round" stroke-linejoin="round" d="M8 4V8L10.6667 9.33333" class="icon__color-element"/></g><defs><clipPath id="dclip0_174_2552"><rect width="16" height="16" fill="#fff"/></clipPath></defs></symbol><symbol viewBox="0 0 20 20" id="eye"><g clip-path="url(#eclip0_168_442)"><path stroke="#000" stroke-linecap="round" stroke-linejoin="round" stroke-width="2" d="M0.833328 10C0.833328 10 4.16666 3.33334 9.99999 3.33334C15.8333 3.33334 19.1667 10 19.1667 10C19.1667 10 15.8333 16.6667 9.99999 16.6667C4.16666 16.6667 0.833328 10 0.833328 10Z" class="icon__color-element"/><path stroke="#000" stroke-linecap="round" stroke-linejoin="round" stroke-width="2" d="M10 12.5C11.3807 12.5 12.5 11.3807 12.5 10C12.5 8.61929 11.3807 7.5 10 7.5C8.61929 7.5 7.5 8.61929 7.5 10C7.5 11.3807 8.61929 12.5 10 12.5Z" class="icon__color-element"/></g><defs><clipPath id="eclip0_168_442"><rect width="20" height="20" fill="#fff"/></clipPath></defs></symbol><symbol viewBox="0 0 20 20" id="faq"><path fill="#000" d="M10 1.25C5.16797 1.25 1.25 5.16797 1.25 10C1.25 14.832 5.16797 18.75 10 18.75C14.832 18.75 18.75 14.832 18.75 10C18.75 5.16797 14.832 1.25 10 1.25ZM10 17.2656C5.98828 17.2656 2.73438 14.0117 2.73438 10C2.73438 5.98828 5.98828 2.73438 10 2.73438C14.0117 2.73438 17.2656 5.98828 17.2656 10C17.2656 14.0117 14.0117 17.2656 10 17.2656Z" class="icon__color-element"/><path fill="#000" d="M12.1797 6.18555C11.5937 5.67188 10.8203 5.39062 10 5.39062C9.17969 5.39062 8.40625 5.67383 7.82031 6.18555C7.21094 6.71875 6.875 7.43555 6.875 8.20312V8.35156C6.875 8.4375 6.94531 8.50781 7.03125 8.50781H7.96875C8.05469 8.50781 8.125 8.4375 8.125 8.35156V8.20312C8.125 7.3418 8.9668 6.64062 10 6.64062C11.0332 6.64062 11.875 7.3418 11.875 8.20312C11.875 8.81055 11.4453 9.36719 10.7793 9.62305C10.3652 9.78125 10.0137 10.0586 9.76172 10.4219C9.50586 10.793 9.37305 11.2383 9.37305 11.6895V12.1094C9.37305 12.1953 9.44336 12.2656 9.5293 12.2656H10.4668C10.5527 12.2656 10.623 12.1953 10.623 12.1094V11.666C10.6241 11.4764 10.6822 11.2915 10.7898 11.1354C10.8975 10.9793 11.0497 10.8593 11.2266 10.791C12.3789 10.3477 13.123 9.33203 13.123 8.20312C13.125 7.43555 12.7891 6.71875 12.1797 6.18555ZM9.21875 14.2969C9.21875 14.5041 9.30106 14.7028 9.44757 14.8493C9.59409 14.9958 9.7928 15.0781 10 15.0781C10.2072 15.0781 10.4059 14.9958 10.5524 14.8493C10.6989 14.7028 10.7812 14.5041 10.7812 14.2969C10.7812 14.0897 10.6989 13.891 10.5524 13.7444C10.4059 13.5979 10.2072 13.5156 10 13.5156C9.7928 13.5156 9.59409 13.5979 9.44757 13.7444C9.30106 13.891 9.21875 14.0897 9.21875 14.2969Z" class="icon__color-element"/></symbol><symbol viewBox="0 0 79 70" id="logo"><path fill="#000" fill-rule="evenodd" d="M35.4466 0.716663C35.8424 1.11246 35.8424 1.75419 35.4466 2.14999L3.8802 33.7164L37.8819 33.7164C38.4416 33.7164 38.8954 34.1702 38.8954 34.7299C38.8954 35.2897 38.4416 35.7434 37.8819 35.7434L3.8802 35.7435L35.4466 67.3099C35.8424 67.7057 35.8424 68.3474 35.4466 68.7432C35.0508 69.139 34.4091 69.139 34.0133 68.7432L0.716691 35.4466C0.320889 35.0508 0.320889 34.4091 0.716692 34.0133L34.0133 0.716663C34.4091 0.320861 35.0508 0.320861 35.4466 0.716663Z" class="icon__color-element" clip-rule="evenodd"/><path fill="#000" fill-rule="evenodd" d="M78.1447 34.76L45.5268 2.14206C42.8026 -0.582117 38.1447 1.34725 38.1447 5.19982V64.3201C38.1447 68.1727 42.8026 70.102 45.5268 67.3779L78.1447 34.76ZM74.2645 35.7735H40.1717V64.3201C40.1717 66.3668 42.6463 67.3918 44.0935 65.9445L74.2645 35.7735ZM40.1717 33.7464H74.2645L44.0935 3.57538C42.6463 2.12816 40.1717 3.15314 40.1717 5.19982V33.7464Z" class="icon__color-element" clip-rule="evenodd"/></symbol><symbol viewBox="0 0 32 16" id="long-arrow"><path fill="#000" d="M1 7C0.447715 7 4.82823e-08 7.44772 0 8C-4.82823e-08 8.55228 0.447715 9 1 9L1 7ZM31.7071 8.70711C32.0976 8.31659 32.0976 7.68342 31.7071 7.2929L25.3431 0.928934C24.9526 0.53841 24.3195 0.53841 23.9289 0.928934C23.5384 1.31946 23.5384 1.95262 23.9289 2.34315L29.5858 8L23.9289 13.6569C23.5384 14.0474 23.5384 14.6805 23.9289 15.0711C24.3195 15.4616 24.9526 15.4616 25.3431 15.0711L31.7071 8.70711ZM1 9L31 9L31 7L1 7L1 9Z" class="icon__color-element"/></symbol><symbol viewBox="0 0 20 20" id="map-pin"><g clip-path="url(#iclip0_168_463)"><path stroke="#000" stroke-linecap="round" stroke-linejoin="round" stroke-width="2" d="M17.5 8.3335C17.5 14.1668 10 19.1668 10 19.1668C10 19.1668 2.5 14.1668 2.5 8.3335C2.5 6.34437 3.29018 4.43672 4.6967 3.03019C6.10322 1.62367 8.01088 0.833496 10 0.833496C11.9891 0.833496 13.8968 1.62367 15.3033 3.03019C16.7098 4.43672 17.5 6.34437 17.5 8.3335Z" class="icon__color-element"/><path stroke="#000" stroke-linecap="round" stroke-linejoin="round" stroke-width="2" d="M10 10.8335C11.3807 10.8335 12.5 9.71421 12.5 8.3335C12.5 6.95278 11.3807 5.8335 10 5.8335C8.61929 5.8335 7.5 6.95278 7.5 8.3335C7.5 9.71421 8.61929 10.8335 10 10.8335Z" class="icon__color-element"/></g><defs><clipPath id="iclip0_168_463"><rect width="20" height="20" fill="#fff"/></clipPath></defs></symbol><symbol viewBox="0 0 45 45" id="menu"><path stroke="#000" stroke-linecap="round" stroke-width="2" d="M9.375 22.5H26.25" class="icon__color-element"/><path stroke="#000" stroke-linecap="round" stroke-width="2" d="M9.375 35.625H35.625" class="icon__color-element"/><path stroke="#000" stroke-linecap="round" stroke-width="2" d="M9.375 9.375H35.625" class="icon__color-element"/><path stroke="#000" stroke-linecap="round" stroke-width="2" d="M31.875 28.125L37.5 22.5" class="icon__color-element"/><path stroke="#000" stroke-linecap="round" stroke-width="2" d="M31.875 16.875L37.5 22.5" class="icon__color-element"/></symbol><symbol viewBox="0 0 20 20" id="minus"><path stroke="#000" stroke-linecap="round" stroke-linejoin="round" stroke-width="2" d="M4.16675 10H15.8334" class="icon__color-element"/></symbol><symbol viewBox="0 0 20 20" id="ok"><path fill="#000" d="M9.98842 10.2842C7.63425 10.2842 5.67758 8.32916 5.67758 6.01582C5.67758 3.62249 7.63425 1.66666 9.98925 1.66666C12.4242 1.66666 14.3001 3.62166 14.3001 6.01582C14.2959 7.1517 13.8409 8.23944 13.035 9.03997C12.2292 9.8405 11.1385 10.2883 10.0026 10.285L9.98842 10.2842ZM9.98842 4.18082C8.99175 4.18082 8.23342 5.01832 8.23342 6.01666C8.23342 7.01332 8.99175 7.77166 9.98925 7.77166C11.0267 7.77166 11.7451 7.01332 11.7451 6.01666C11.7459 5.01749 11.0267 4.18082 9.98842 4.18082ZM11.7051 13.8358L14.1409 16.19C14.6201 16.7075 14.6201 17.4658 14.1409 17.945C13.6226 18.4625 12.8234 18.4625 12.4242 17.945L9.98925 15.5508L7.63425 17.945C7.39508 18.1842 7.07508 18.3033 6.71508 18.3033C6.43591 18.3033 6.11675 18.1833 5.83675 17.945C5.35758 17.4658 5.35758 16.7075 5.83675 16.1892L8.31175 13.835C7.41794 13.5703 6.56053 13.1955 5.75925 12.7192C5.16008 12.4 5.04092 11.6025 5.36008 11.0033C5.75925 10.405 6.47758 10.2458 7.11675 10.645C7.98225 11.1732 8.97657 11.4526 9.9905 11.4526C11.0044 11.4526 11.9988 11.1732 12.8642 10.645C13.5034 10.2458 14.2609 10.405 14.6201 11.0033C14.9801 11.6025 14.8192 12.3992 14.2601 12.7192C13.5026 13.1983 12.6242 13.5575 11.7059 13.8367L11.7051 13.8358Z" class="icon__color-element"/></symbol><symbol viewBox="0 0 20 20" id="plus"><path stroke="#000" stroke-linecap="round" stroke-linejoin="round" stroke-width="2" d="M10 4.16667V15.8333" class="icon__color-element"/><path stroke="#000" stroke-linecap="round" stroke-linejoin="round" stroke-width="2" d="M4.16675 10H15.8334" class="icon__color-element"/></symbol><symbol viewBox="0 0 20 20" id="search"><path stroke="#000" stroke-linecap="round" stroke-linejoin="round" stroke-width="2" d="M9.16667 15.8333C12.8486 15.8333 15.8333 12.8486 15.8333 9.16667C15.8333 5.48477 12.8486 2.5 9.16667 2.5C5.48477 2.5 2.5 5.48477 2.5 9.16667C2.5 12.8486 5.48477 15.8333 9.16667 15.8333Z" class="icon__color-element"/><path stroke="#000" stroke-linecap="round" stroke-linejoin="round" stroke-width="2" d="M17.5 17.5L13.875 13.875" class="icon__color-element"/></symbol><symbol viewBox="0 0 20 20" id="telegram"><path fill="#000" d="M17.2208 3.0975L2.44583 8.795C1.4375 9.2 1.44333 9.7625 2.26083 10.0133L6.05416 11.1967L14.8308 5.65917C15.2458 5.40667 15.625 5.5425 15.3133 5.81917L8.2025 12.2367H8.20083L8.2025 12.2375L7.94083 16.1475C8.32416 16.1475 8.49333 15.9717 8.70833 15.7642L10.5508 13.9725L14.3833 16.8033C15.09 17.1925 15.5975 16.9925 15.7733 16.1492L18.2892 4.2925C18.5467 3.26 17.895 2.7925 17.2208 3.0975Z" class="icon__color-element"/></symbol><symbol viewBox="0 0 19 19" id="telegtam"><path fill="#000" d="M9.5 0C4.25363 0 0 4.25363 0 9.5C0 14.7464 4.25363 19 9.5 19C14.7464 19 19 14.7464 19 9.5C19 4.25363 14.7464 0 9.5 0ZM14.1661 6.50829L12.6065 13.855C12.4917 14.3759 12.1814 14.5025 11.7483 14.2571L9.37333 12.5075L8.22858 13.6111C8.17249 13.6837 8.10052 13.7425 8.01818 13.783C7.93585 13.8235 7.84533 13.8446 7.75358 13.8447H7.74962L7.91825 11.4269L12.3199 7.45117C12.5099 7.28254 12.2772 7.18675 12.0246 7.35538L6.58667 10.7801L4.24333 10.0486C3.73667 9.88792 3.72242 9.54196 4.35021 9.29338L13.5066 5.76413C13.9325 5.60896 14.303 5.86546 14.1653 6.50908L14.1661 6.50829Z" class="icon__color-element"/></symbol><symbol viewBox="0 0 14 14" id="thin-pin"><path stroke="#000" stroke-linecap="round" stroke-linejoin="round" d="M12.25 5.8335C12.25 9.91684 7 13.4168 7 13.4168C7 13.4168 1.75 9.91684 1.75 5.8335C1.75 4.44111 2.30312 3.10575 3.28769 2.12119C4.27226 1.13662 5.60761 0.583496 7 0.583496C8.39239 0.583496 9.72774 1.13662 10.7123 2.12119C11.6969 3.10575 12.25 4.44111 12.25 5.8335Z" class="icon__color-element"/><path stroke="#000" stroke-linecap="round" stroke-linejoin="round" d="M7 7.5835C7.9665 7.5835 8.75 6.8 8.75 5.8335C8.75 4.867 7.9665 4.0835 7 4.0835C6.0335 4.0835 5.25 4.867 5.25 5.8335C5.25 6.8 6.0335 7.5835 7 7.5835Z" class="icon__color-element"/></symbol><symbol viewBox="0 0 20 12" id="vk"><path fill="#000" fill-rule="evenodd" d="M17.8021 8.29799C17.8021 8.29799 19.4191 9.89499 19.8191 10.634C19.8269 10.6447 19.8329 10.6565 19.8371 10.669C20.0001 10.942 20.0401 11.156 19.9601 11.314C19.8251 11.575 19.3681 11.706 19.2131 11.717H16.3551C16.1561 11.717 15.7421 11.665 15.2381 11.317C14.8531 11.048 14.4701 10.605 14.0991 10.172C13.5451 9.52899 13.0661 8.97099 12.5811 8.97099C12.5198 8.97086 12.459 8.981 12.4011 9.00099C12.0341 9.11699 11.5681 9.63999 11.5681 11.033C11.5681 11.469 11.2241 11.717 10.9831 11.717H9.67409C9.22809 11.717 6.90609 11.561 4.84709 9.38999C2.32409 6.73199 0.05809 1.39999 0.03609 1.35299C-0.10491 1.00799 0.19109 0.81999 0.51109 0.81999H3.39709C3.78409 0.81999 3.91009 1.05399 3.99809 1.26399C4.10009 1.50499 4.47809 2.46899 5.09809 3.55199C6.10209 5.31399 6.71909 6.03099 7.21209 6.03099C7.30471 6.03126 7.39577 6.00712 7.47609 5.96099C8.12009 5.60699 8.00009 3.30699 7.97009 2.83299C7.97009 2.74099 7.96909 1.80599 7.63909 1.35399C7.40309 1.02999 7.00109 0.903989 6.75809 0.857989C6.82309 0.763989 6.96109 0.619989 7.13809 0.534989C7.57909 0.314989 8.37609 0.28299 9.16709 0.28299H9.60609C10.4641 0.29499 10.6861 0.349989 10.9981 0.428989C11.6261 0.578989 11.6381 0.98599 11.5831 2.37199C11.5671 2.76799 11.5501 3.21399 11.5501 3.73899C11.5501 3.85099 11.5451 3.97599 11.5451 4.10299C11.5261 4.81399 11.5011 5.61499 12.0031 5.94399C12.0682 5.98455 12.1434 6.00603 12.2201 6.00599C12.3941 6.00599 12.9151 6.00599 14.3281 3.58099C14.9481 2.50999 15.4281 1.24699 15.4611 1.15199C15.4891 1.09899 15.5731 0.949989 15.6751 0.889989C15.7476 0.851385 15.8289 0.8321 15.9111 0.83399H19.3061C19.6761 0.83399 19.9271 0.88999 19.9761 1.02999C20.0581 1.25699 19.9601 1.94999 18.4101 4.04599C18.1491 4.39499 17.9201 4.69699 17.7191 4.96099C16.3141 6.80499 16.3141 6.89799 17.8021 8.29799Z" class="icon__color-element" clip-rule="evenodd"/></symbol><symbol viewBox="0 0 19 19" id="youtube"><path fill="#000" d="M11.0237 9.34026L8.89001 8.34466C8.70381 8.25821 8.55086 8.35511 8.55086 8.56126V10.4366C8.55086 10.6427 8.70381 10.7396 8.89001 10.6532L11.0228 9.65756C11.2099 9.57016 11.2099 9.42766 11.0237 9.34026ZM9.50086 0.378906C4.46396 0.378906 0.380859 4.46201 0.380859 9.49891C0.380859 14.5358 4.46396 18.6189 9.50086 18.6189C14.5378 18.6189 18.6209 14.5358 18.6209 9.49891C18.6209 4.46201 14.5378 0.378906 9.50086 0.378906ZM9.50086 13.2039C4.83256 13.2039 4.75086 12.7831 4.75086 9.49891C4.75086 6.21476 4.83256 5.79391 9.50086 5.79391C14.1692 5.79391 14.2509 6.21476 14.2509 9.49891C14.2509 12.7831 14.1692 13.2039 9.50086 13.2039Z" class="icon__color-element"/></symbol></svg>

<?xml version="1.0" encoding="utf-8"?><svg xmlns="http://www.w3.org/2000/svg" xmlns:xlink="http://www.w3.org/1999/xlink"><symbol viewBox="0 0 20 20" id="arrow-up-right"><path stroke="#000" stroke-linecap="round" stroke-linejoin="round" stroke-width="2" d="M5.833 14.167l8.334-8.334M5.833 5.833h8.334v8.334" class="icon__color-element"/></symbol><symbol viewBox="0 0 20 20" id="calendar"><path stroke="#000" stroke-linecap="round" stroke-linejoin="round" stroke-width="2" d="M15.833 3.333H4.167C3.247 3.333 2.5 4.08 2.5 5v11.667c0 .92.746 1.666 1.667 1.666h11.666c.92 0 1.667-.746 1.667-1.666V5c0-.92-.746-1.667-1.667-1.667zM13.333 1.667V5M6.667 1.667V5M2.5 8.333h15" class="icon__color-element"/></symbol><symbol viewBox="0 0 20 20" id="chevron-down"><path stroke="#000" stroke-linecap="round" stroke-linejoin="round" stroke-width="2" d="M5 7.5l5 5 5-5" class="icon__color-element"/></symbol><symbol viewBox="0 0 20 20" id="eye"><g clip-path="url(#dclip0_168_442)"><path stroke="#000" stroke-linecap="round" stroke-linejoin="round" stroke-width="2" d="M.833 10S4.167 3.333 10 3.333 19.167 10 19.167 10 15.833 16.667 10 16.667.833 10 .833 10z" class="icon__color-element"/><path stroke="#000" stroke-linecap="round" stroke-linejoin="round" stroke-width="2" d="M10 12.5a2.5 2.5 0 100-5 2.5 2.5 0 000 5z" class="icon__color-element"/></g><defs><clipPath id="dclip0_168_442"><path fill="#fff" d="M0 0h20v20H0z"/></clipPath></defs></symbol><symbol viewBox="0 0 20 20" id="faq"><path fill="#000" d="M10 1.25a8.75 8.75 0 10.001 17.501A8.75 8.75 0 0010 1.25zm0 16.016a7.267 7.267 0 010-14.532 7.267 7.267 0 010 14.532z" class="icon__color-element"/><path fill="#000" d="M12.18 6.186A3.293 3.293 0 0010 5.39c-.82 0-1.594.283-2.18.795-.61.533-.945 1.25-.945 2.017v.149c0 .085.07.156.156.156h.938c.086 0 .156-.07.156-.156v-.149c0-.861.842-1.562 1.875-1.562s1.875.7 1.875 1.562c0 .608-.43 1.164-1.096 1.42a2.183 2.183 0 00-1.406 2.067v.42c0 .085.07.156.156.156h.938c.086 0 .156-.07.156-.157v-.443a.945.945 0 01.604-.875c1.152-.443 1.896-1.459 1.896-2.588.002-.767-.334-1.484-.943-2.017zm-2.961 8.11a.781.781 0 101.562 0 .781.781 0 00-1.562 0z" class="icon__color-element"/></symbol><symbol viewBox="0 0 102 16" id="link-arrow-desktop"><path fill="#1175D0" d="M1 7a1 1 0 000 2V7zm100.707 1.707a1 1 0 000-1.414L95.343.929a1 1 0 10-1.414 1.414L99.586 8l-5.657 5.657a1 1 0 001.414 1.414l6.364-6.364zM1 9h100V7H1v2z"/></symbol><symbol viewBox="0 0 52 16" id="link-arrow-mobile"><path fill="#1175D0" d="M1 7a1 1 0 000 2V7zm50.707 1.707a1 1 0 000-1.414L45.343.929a1 1 0 10-1.414 1.414L49.586 8l-5.657 5.657a1 1 0 001.414 1.414l6.364-6.364zM1 9h50V7H1v2z"/></symbol><symbol viewBox="0 0 79 70" id="logo"><path fill-rule="evenodd" d="M35.447.717a1.014 1.014 0 010 1.433L3.88 33.716h34.002a1.014 1.014 0 010 2.027H3.88L35.447 67.31a1.013 1.013 0 11-1.434 1.433L.717 35.447a1.013 1.013 0 010-1.434L34.013.717a1.013 1.013 0 011.434 0z" class="icon__color-element" clip-rule="evenodd"/><path fill-rule="evenodd" d="M78.145 34.76L45.527 2.142c-2.724-2.724-7.382-.795-7.382 3.058v59.12c0 3.853 4.658 5.782 7.382 3.058L78.145 34.76zm-3.88 1.014H40.171V64.32c0 2.047 2.474 3.072 3.922 1.625l30.17-30.171zm-34.093-2.028h34.093L44.093 3.576c-1.447-1.448-3.921-.423-3.921 1.624v28.546z" class="icon__color-element" clip-rule="evenodd"/></symbol><symbol viewBox="0 0 32 16" id="long-arrow"><path fill="#000" d="M1 7a1 1 0 000 2V7zm30.707 1.707a1 1 0 000-1.414L25.343.929a1 1 0 10-1.414 1.414L29.586 8l-5.657 5.657a1 1 0 001.414 1.414l6.364-6.364zM1 9h30V7H1v2z" class="icon__color-element"/></symbol><symbol viewBox="0 0 20 20" id="map-pin"><g clip-path="url(#jclip0_168_463)"><path stroke="#000" stroke-linecap="round" stroke-linejoin="round" stroke-width="2" d="M17.5 8.334c0 5.833-7.5 10.833-7.5 10.833s-7.5-5-7.5-10.834a7.5 7.5 0 0115 0z" class="icon__color-element"/><path stroke="#000" stroke-linecap="round" stroke-linejoin="round" stroke-width="2" d="M10 10.834a2.5 2.5 0 100-5 2.5 2.5 0 000 5z" class="icon__color-element"/></g><defs><clipPath id="jclip0_168_463"><path fill="#fff" d="M0 0h20v20H0z"/></clipPath></defs></symbol><symbol viewBox="0 0 45 45" id="menu"><path stroke="#000" stroke-linecap="round" stroke-width="2" d="M9.375 22.5H26.25M9.375 35.625h26.25M9.375 9.375h26.25M31.875 28.125L37.5 22.5M31.875 16.875L37.5 22.5" class="icon__color-element"/></symbol><symbol viewBox="0 0 20 20" id="minus"><path stroke="#000" stroke-linecap="round" stroke-linejoin="round" stroke-width="2" d="M4.167 10h11.666" class="icon__color-element"/></symbol><symbol viewBox="0 0 20 20" id="ok"><path fill="#000" d="M9.988 10.284c-2.354 0-4.31-1.955-4.31-4.268 0-2.394 1.956-4.35 4.311-4.35 2.435 0 4.311 1.956 4.311 4.35a4.285 4.285 0 01-4.297 4.269h-.015zm0-6.103c-.996 0-1.755.837-1.755 1.836 0 .996.759 1.755 1.756 1.755 1.038 0 1.756-.759 1.756-1.755 0-1-.718-1.836-1.757-1.836zm1.717 9.655l2.436 2.354c.48.517.48 1.276 0 1.755-.518.517-1.318.517-1.717 0L9.99 15.551l-2.355 2.394c-.239.24-.559.358-.919.358-.28 0-.598-.12-.878-.358-.48-.48-.48-1.238 0-1.756l2.475-2.354a11.244 11.244 0 01-2.553-1.116c-.599-.319-.718-1.117-.399-1.716.4-.598 1.118-.757 1.757-.358a5.516 5.516 0 005.747 0c.64-.4 1.397-.24 1.756.358.36.6.2 1.396-.36 1.716-.757.48-1.636.838-2.554 1.118v-.001z" class="icon__color-element"/></symbol><symbol viewBox="0 0 20 20" id="plus"><path stroke="#000" stroke-linecap="round" stroke-linejoin="round" stroke-width="2" d="M10 4.167v11.666M4.167 10h11.666" class="icon__color-element"/></symbol><symbol viewBox="0 0 20 20" id="search"><path stroke="#000" stroke-linecap="round" stroke-linejoin="round" stroke-width="2" d="M9.167 15.833a6.667 6.667 0 100-13.333 6.667 6.667 0 000 13.333zM17.5 17.5l-3.625-3.625" class="icon__color-element"/></symbol><symbol viewBox="0 0 20 20" id="telegram"><path fill="#000" d="M17.22 3.098L2.447 8.794c-1.009.405-1.003.967-.185 1.218l3.793 1.184 8.777-5.538c.415-.252.794-.116.482.16l-7.11 6.418H8.2h.002l-.262 3.91c.383 0 .552-.175.767-.383l1.843-1.791 3.832 2.83c.707.39 1.215.19 1.39-.654L18.29 4.292c.258-1.032-.394-1.5-1.068-1.194z" class="icon__color-element"/></symbol><symbol viewBox="0 0 20 12" id="vk"><path fill="#000" fill-rule="evenodd" d="M17.802 8.298s1.617 1.597 2.017 2.336c.008.01.014.022.018.035.163.273.203.487.123.645-.135.261-.592.392-.747.403h-2.858c-.199 0-.613-.052-1.117-.4-.385-.269-.768-.712-1.139-1.145-.554-.643-1.033-1.201-1.518-1.201a.548.548 0 00-.18.03c-.367.116-.833.639-.833 2.032 0 .436-.344.684-.585.684H9.674c-.446 0-2.768-.156-4.827-2.327C2.324 6.732.058 1.4.037 1.353-.106 1.008.19.82.51.82h2.886c.387 0 .513.234.601.444.102.241.48 1.205 1.1 2.288C6.102 5.314 6.72 6.031 7.212 6.031a.527.527 0 00.264-.07c.644-.354.524-2.654.494-3.128 0-.092 0-1.027-.33-1.479C7.402 1.03 7 .904 6.757.858c.065-.094.203-.238.38-.323.441-.22 1.238-.252 2.03-.252h.438c.858.012 1.08.067 1.392.146.628.15.64.557.585 1.943-.016.396-.033.842-.033 1.367 0 .112-.005.237-.005.364-.019.711-.044 1.512.458 1.841a.41.41 0 00.217.062c.174 0 .695 0 2.108-2.425.62-1.071 1.1-2.334 1.133-2.429.028-.053.112-.202.214-.262a.479.479 0 01.236-.056h3.395c.37 0 .621.056.67.196.082.227-.016.92-1.566 3.016-.26.349-.49.651-.69.915-1.406 1.844-1.406 1.937.082 3.337z" class="icon__color-element" clip-rule="evenodd"/></symbol><symbol viewBox="0 0 19 19" id="youtube"><path fill="#000" d="M11.024 9.34L8.89 8.345c-.186-.087-.34.01-.34.216v1.876c0 .206.154.303.34.216l2.133-.995c.187-.088.187-.23 0-.318zM9.5.38a9.12 9.12 0 100 18.24 9.12 9.12 0 100-18.24zm0 12.825c-4.668 0-4.75-.42-4.75-3.705 0-3.284.082-3.705 4.75-3.705s4.75.42 4.75 3.705c0 3.284-.082 3.705-4.75 3.705z" class="icon__color-element"/></symbol></svg>
